src/images/icon/icon_set_normal.svg

<svg height="20" viewBox="0 0 20 20" width="20" xmlns="http://www.w3.org/2000/svg"><g fill="none" fill-rule="evenodd" stroke-width="1.5"><path d="m18.8641115 8.47898042c-.0940767-.53025182-.5644599-.92534141-1.1184669-.90454722-.7421603.02079418-1.4216028-.36389831-1.7874564-.99812108-.3658537-.63422276-.3554007-1.41400485.0313588-2.03783052.28223-.46786925.1881533-1.07090073-.2299651-1.41400485-.7944251-.65501696-1.6829268-1.17487168-2.6445993-1.52837289-.5121951-.18714771-1.087108.03119128-1.3484321.50945763-.3449477.64461986-1.0243902 1.05010654-1.7665505 1.05010654-.73170732 0-1.41114983-.40548668-1.76655052-1.05010654-.26132404-.47826635-.83623694-.69660534-1.34843206-.50945763-.96167247.35350121-1.86062718.86295884-2.6445993 1.52837289-.41811847.34310412-.51219512.95653269-.22996516 1.41400485.38675958.62382567.39721255 1.40360776.03135889 2.03783052-.36585366.63422277-1.05574913 1.00851817-1.78745645.99812108h-.03135888c-.53310105 0-1.00348432.38469249-1.08710802.90454722-.08362369.49906053-.1358885 1.01891526-.1358885 1.51797579 0 .50945759.04181185 1.01891529.1358885 1.51797579.09407666.5302518.57491289.9253414 1.1184669.9045472.73170732-.0207942 1.42160279.3638983 1.78745645.9981211s.35540069 1.4140049-.03135889 2.0378305c-.28222996.4678693-.18815331 1.0709008.22996516 1.4140049.79442509.6550169 1.68292683 1.1748717 2.6445993 1.5283729.51219512.1871477 1.08710802-.0311913 1.34843206-.5094577.34494773-.6446198 1.02439024-1.0501065 1.76655052-1.0501065.7421603 0 1.4111498.4054867 1.7665505 1.0501065.1986063.3638984.5749129.5822373.9721255.5822373.1254355 0 .250871-.0207942.3763066-.0623825.9616725-.3535012 1.8606272-.8629589 2.6445993-1.5283729.4181184-.3431041.5121951-.9565327.2299651-1.4140049-.3867595-.6238256-.3972125-1.4036077-.0313588-2.0378305.3658536-.6342228 1.0557491-1.0085182 1.7874564-.9981211.543554.0103971 1.0243902-.3742954 1.1184669-.9045472.0836237-.4990605.1358885-1.0189153.1358885-1.5179758 0-.49906053-.0522648-1.02931235-.1358885-1.52837288z" fill-rule="nonzero" stroke="#b6c2cd"/><circle cx="10" cy="10" r="3" stroke="#36435c"/></g></svg>

<?xml version="1.0" encoding="UTF-8"?>
<svg width="20px" height="20px" viewBox="0 0 20 20" version="1.1" xmlns="http://www.w3.org/2000/svg" xmlns:xlink="http://www.w3.org/1999/xlink">
    <title>icon_set_normal</title>
    <g id="Dashboard" stroke="none" stroke-width="1" fill="none" fill-rule="evenodd">
        <g id="01-配置中心-第三方服务配置" transform="translate(-1342.000000, -20.000000)" stroke-width="1.5">
            <g id="编组-8" transform="translate(1342.000000, 20.000000)">
                <path d="M18.8641115,8.47898042 C18.7700348,7.9487286 18.2996516,7.55363901 17.7456446,7.5744332 C17.0034843,7.59522738 16.3240418,7.21053489 15.9581882,6.57631212 C15.5923345,5.94208936 15.6027875,5.16230727 15.989547,4.5384816 C16.271777,4.07061235 16.1777003,3.46758087 15.7595819,3.12447675 C14.9651568,2.46945979 14.0766551,1.94960507 13.1149826,1.59610386 C12.6027875,1.40895615 12.0278746,1.62729514 11.7665505,2.10556149 C11.4216028,2.75018135 10.7421603,3.15566803 10,3.15566803 C9.26829268,3.15566803 8.58885017,2.75018135 8.23344948,2.10556149 C7.97212544,1.62729514 7.39721254,1.40895615 6.88501742,1.59610386 C5.92334495,1.94960507 5.02439024,2.4590627 4.24041812,3.12447675 C3.82229965,3.46758087 3.728223,4.08100944 4.01045296,4.5384816 C4.39721254,5.16230727 4.40766551,5.94208936 4.04181185,6.57631212 C3.67595819,7.21053489 2.98606272,7.58483029 2.2543554,7.5744332 L2.22299652,7.5744332 C1.68989547,7.5744332 1.2195122,7.95912569 1.1358885,8.47898042 C1.05226481,8.97804095 1,9.49789568 1,9.99695621 C1,10.5064138 1.04181185,11.0158715 1.1358885,11.514932 C1.22996516,12.0451838 1.71080139,12.4402734 2.2543554,12.4194792 C2.98606272,12.398685 3.67595819,12.7833775 4.04181185,13.4176003 C4.40766551,14.0518231 4.39721254,14.8316052 4.01045296,15.4554308 C3.728223,15.9233001 3.82229965,16.5263316 4.24041812,16.8694357 C5.03484321,17.5244526 5.92334495,18.0443074 6.88501742,18.3978086 C7.39721254,18.5849563 7.97212544,18.3666173 8.23344948,17.8883509 C8.57839721,17.2437311 9.25783972,16.8382444 10,16.8382444 C10.7421603,16.8382444 11.4111498,17.2437311 11.7665505,17.8883509 C11.9651568,18.2522493 12.3414634,18.4705882 12.738676,18.4705882 C12.8641115,18.4705882 12.989547,18.449794 13.1149826,18.4082057 C14.0766551,18.0547045 14.9756098,17.5452468 15.7595819,16.8798328 C16.1777003,16.5367287 16.271777,15.9233001 15.989547,15.4658279 C15.6027875,14.8420023 15.5923345,14.0622202 15.9581882,13.4279974 C16.3240418,12.7937746 17.0139373,12.4194792 17.7456446,12.4298763 C18.2891986,12.4402734 18.7700348,12.0555809 18.8641115,11.5253291 C18.9477352,11.0262686 19,10.5064138 19,10.0073533 C19,9.50829277 18.9477352,8.97804095 18.8641115,8.47898042 L18.8641115,8.47898042 Z" id="路径" stroke="#B6C2CD" fill-rule="nonzero"></path>
                <circle id="椭圆形" stroke="#36435C" cx="10" cy="10" r="3"></circle>
            </g>
        </g>
    </g>
</svg>
